src/assets/icons/ac.svg

<svg width="24" height="24" viewBox="0 0 24 24" fill="none" xmlns="http://www.w3.org/2000/svg">
<path fill-rule="evenodd" clip-rule="evenodd" d="M12.0001 1.34375C14.2092 1.34375 16.0001 3.13465 16.0001 5.34375V11.5615C17.2428 12.6552 18.0116 14.2176 18.082 15.9181L18.0873 16.1742C18.0873 19.5616 15.3412 22.3077 11.9538 22.3077C8.56641 22.3077 5.82031 19.5616 5.82031 16.1742C5.82031 14.399 6.58187 12.7574 7.84881 11.6163L7.9991 11.4855L8.0001 5.34377C8.0001 3.20157 9.6841 1.45267 11.8005 1.34867L12.0001 1.34375ZM12.0001 3.34375C10.8955 3.34375 10.0001 4.23918 10.0001 5.34375L9.9995 12.531C8.7023 13.2283 7.8204 14.5983 7.8204 16.1742C7.8204 18.4571 9.671 20.3076 11.9539 20.3076C14.2368 20.3076 16.0874 18.4571 16.0874 16.1742C16.0874 14.6328 15.2437 13.2884 14.0002 12.5779V5.34375C14.0002 4.23915 13.1047 3.34375 12.0001 3.34375ZM13.182 8.00045L13.1822 13.4069C14.2003 13.8731 14.9075 14.901 14.9075 16.094C14.9075 17.7253 13.5851 19.0476 11.9538 19.0476C10.3225 19.0476 9.00013 17.7253 9.00013 16.094C9.00013 14.7964 9.83685 13.6943 11.0001 13.2976L11.0001 8.00045H13.182Z" fill="black"/>
</svg>

<svg xmlns="http://www.w3.org/2000/svg" width="24" height="24" fill="none"><path fill="#000" fill-rule="evenodd" d="M12 1.344a4 4 0 0 1 4 4v6.218a6.14 6.14 0 0 1 2.082 4.356l.005.256A6.134 6.134 0 1 1 7.85 11.616l.15-.13L8 5.344a4 4 0 0 1 3.8-3.995zm0 2a2 2 0 0 0-2 2v7.187a4.133 4.133 0 1 0 6.088 3.643A4.14 4.14 0 0 0 14 12.578V5.344a2 2 0 0 0-2-2M13.182 8v5.407a2.954 2.954 0 1 1-2.182-.11V8z" clip-rule="evenodd"/></svg>
